icons/breezeDark/actions/24/zoom-fit-best.svg

<svg viewBox="0 0 24 24" xmlns="http://www.w3.org/2000/svg"><g fill="#c0c0c0"><path d="m4 4v1 3h1v-3h3v-1h-3z"/><path d="m16 4v1h3v3h1v-4z"/><path d="m7 7v10h10v-10zm1 1h8v8h-8z"/><path d="m4 16v4h1 3v-1h-3v-3z"/><path d="m19 16v3h-3v1h4v-1-3z"/><path d="m10 6h4l-2-2"/><path d="m18 10v4l2-2"/><path d="m6 14v-4l-2 2"/><path d="m10 18h4l-2 2"/><path d="m8 8h8v8h-8z" fill-opacity=".501961"/></g></svg>

<?xml version="1.0" encoding="UTF-8" standalone="no"?>
<svg
   xmlns:dc="http://purl.org/dc/elements/1.1/"
   xmlns:cc="http://creativecommons.org/ns#"
   xmlns:rdf="http://www.w3.org/1999/02/22-rdf-syntax-ns#"
   xmlns:svg="http://www.w3.org/2000/svg"
   xmlns="http://www.w3.org/2000/svg"
   xmlns:sodipodi="http://sodipodi.sourceforge.net/DTD/sodipodi-0.dtd"
   xmlns:inkscape="http://www.inkscape.org/namespaces/inkscape"
   viewBox="0 0 24 24"
   version="1.1"
   id="svg6"
   sodipodi:docname="zoom-fit-best.svg"
   inkscape:version="0.92.4 (5da689c313, 2019-01-14)">
  <metadata
     id="metadata10">
    <rdf:RDF>
      <cc:Work
         rdf:about="">
        <dc:format>image/svg+xml</dc:format>
        <dc:type
           rdf:resource="http://purl.org/dc/dcmitype/StillImage" />
        <dc:title />
      </cc:Work>
    </rdf:RDF>
  </metadata>
  <sodipodi:namedview
     pagecolor="#ffffff"
     bordercolor="#666666"
     borderopacity="1"
     objecttolerance="10"
     gridtolerance="10"
     guidetolerance="10"
     inkscape:pageopacity="0"
     inkscape:pageshadow="2"
     inkscape:window-width="1606"
     inkscape:window-height="1411"
     id="namedview8"
     showgrid="true"
     inkscape:zoom="55.625733"
     inkscape:cx="10.282404"
     inkscape:cy="12.759926"
     inkscape:window-x="2013"
     inkscape:window-y="467"
     inkscape:window-maximized="0"
     inkscape:current-layer="svg6">
    <inkscape:grid
       type="xygrid"
       id="grid817"
       empspacing="8" />
  </sodipodi:namedview>
  <defs
     id="defs3051">
    <style
       type="text/css"
       id="current-color-scheme">
      .ColorScheme-Text {
        color:#c0c0c0;
      }
      </style>
  </defs>
  <path
     style="fill:#c0c0c0;fill-opacity:1;stroke:none"
     d="M 4,4 V 5 8 H 5 V 5 H 8 V 4 H 5 Z"
     id="path872" />
  <path
     style="fill:#c0c0c0;fill-opacity:1;stroke:none"
     d="m 16,4 v 1 h 3 v 3 h 1 V 4 Z"
     id="path870" />
  <path
     style="fill:#c0c0c0;fill-opacity:1;stroke:none;stroke-width:2"
     d="M 7 7 L 7 17 L 17 17 L 17 7 L 7 7 z M 8 8 L 16 8 L 16 16 L 8 16 L 8 8 z "
     id="path866" />
  <path
     style="fill:#c0c0c0;fill-opacity:1;stroke:none"
     d="m 4,16 v 4 H 5 8 V 19 H 5 v -3 z"
     id="path852" />
  <path
     style="fill:#c0c0c0;fill-opacity:1;stroke:none"
     d="m 19,16 v 3 h -3 v 1 h 4 v -1 -3 z"
     id="path4" />
  <path
     style="fill:#c0c0c0;fill-opacity:1;stroke:none;stroke-width:1px;stroke-linecap:butt;stroke-linejoin:miter;stroke-opacity:1"
     d="m 10,6 h 4 L 12,4"
     id="path821"
     inkscape:connector-curvature="0"
     sodipodi:nodetypes="ccc" />
  <path
     style="fill:#c0c0c0;fill-opacity:1;stroke:none;stroke-width:1px;stroke-linecap:butt;stroke-linejoin:miter;stroke-opacity:1"
     d="m 18,10 v 4 l 2,-2"
     id="path821-6"
     inkscape:connector-curvature="0"
     sodipodi:nodetypes="ccc" />
  <path
     style="fill:#c0c0c0;fill-opacity:1;stroke:none;stroke-width:1px;stroke-linecap:butt;stroke-linejoin:miter;stroke-opacity:1"
     d="M 6,14 V 10 L 4,12"
     id="path821-7"
     inkscape:connector-curvature="0"
     sodipodi:nodetypes="ccc" />
  <path
     style="fill:#c0c0c0;fill-opacity:1;stroke:none;stroke-width:1px;stroke-linecap:butt;stroke-linejoin:miter;stroke-opacity:1"
     d="m 10,18 h 4 l -2,2"
     id="path821-3"
     inkscape:connector-curvature="0"
     sodipodi:nodetypes="ccc" />
  <rect
     style="fill:#c0c0c0;fill-opacity:0.50196078;stroke:none;stroke-opacity:1"
     id="rect825"
     width="8"
     height="8"
     x="8"
     y="8" />
</svg>
